assets/icons/document/template.svg

<?xml version="1.0" encoding="UTF-8" standalone="no"?>
<svg
   viewBox="0 0 24 24"
   height="24"
   id="svg7384"
   version="1.1"
   width="24"
   sodipodi:docname="template.svg"
   inkscape:version="1.2 (1:1.2.1+202207142221+cd75a1ee6d)"
   xmlns:inkscape="http://www.inkscape.org/namespaces/inkscape"
   xmlns:sodipodi="http://sodipodi.sourceforge.net/DTD/sodipodi-0.dtd"
   xmlns="http://www.w3.org/2000/svg"
   xmlns:svg="http://www.w3.org/2000/svg"
   xmlns:rdf="http://www.w3.org/1999/02/22-rdf-syntax-ns#"
   xmlns:cc="http://creativecommons.org/ns#"
   xmlns:dc="http://purl.org/dc/elements/1.1/">
  <sodipodi:namedview
     id="namedview21"
     pagecolor="#ffffff"
     bordercolor="#666666"
     borderopacity="1.0"
     inkscape:pageshadow="2"
     inkscape:pageopacity="0.0"
     inkscape:pagecheckerboard="0"
     showgrid="false"
     inkscape:zoom="32"
     inkscape:cx="10.40625"
     inkscape:cy="16.046875"
     inkscape:window-width="1920"
     inkscape:window-height="1016"
     inkscape:window-x="0"
     inkscape:window-y="0"
     inkscape:window-maximized="1"
     inkscape:current-layer="svg7384"
     inkscape:showpageshadow="2"
     inkscape:deskcolor="#d1d1d1">
    <inkscape:grid
       type="xygrid"
       id="grid838" />
    <inkscape:grid
       type="xygrid"
       id="grid957"
       dotted="true"
       spacingx="0.5"
       spacingy="0.5"
       empspacing="10" />
  </sodipodi:namedview>
  <metadata
     id="metadata20854">
    <rdf:RDF>
      <cc:Work
         rdf:about="">
        <dc:format>image/svg+xml</dc:format>
        <dc:type
           rdf:resource="http://purl.org/dc/dcmitype/StillImage" />
      </cc:Work>
    </rdf:RDF>
  </metadata>
  <defs
     id="defs7386">
    <linearGradient
       id="linearGradient5606"
       inkscape:swatch="solid">
      <stop
         id="stop5608"
         offset="0"
         style="stop-color:#000000;stop-opacity:1;" />
    </linearGradient>
    <linearGradient
       id="linearGradient4526"
       inkscape:swatch="solid">
      <stop
         id="stop4528"
         offset="0"
         style="stop-color:#ffffff;stop-opacity:1;" />
    </linearGradient>
    <linearGradient
       id="linearGradient3600-4"
       inkscape:swatch="gradient">
      <stop
         id="stop3602-7"
         offset="0"
         style="stop-color:#f4f4f4;stop-opacity:1" />
      <stop
         id="stop3604-6"
         offset="1"
         style="stop-color:#dbdbdb;stop-opacity:1" />
    </linearGradient>
  </defs>
  <path
     id="path874"
     style="color:#000000;fill:#808080;fill-opacity:1;-inkscape-stroke:none"
     d="m 7.4550781,2.0019531 c -0.9685809,0.00898 -1.717819,0.073269 -2.3378906,0.4453125 -0.4133815,0.2480287 -0.7199379,0.6559075 -0.8886719,1.1621094 -0.1345992,0.4037975 -0.1978502,0.877301 -0.21875,1.4453125 l 0.9902344,0.6054687 v -0.1582031 c 0,-0.722222 0.065219,-1.2386245 0.1777344,-1.5761719 0.1125157,-0.337547 0.2434598,-0.4921696 0.4550781,-0.6191406 0.4232365,-0.2539419 1.367189,-0.3046875 2.8671875,-0.3046875 h 6.5 v 5 h 5 v 6.8242189 l 1,0.609375 v -8.1406251 l -5.292969,-5.2929688 h -7.207031 c -0.3749996,0 -0.7220616,-0.00299 -1.0449219,0 z m -4.4550781,3.6074219 v 12.390625 h 0.5 19.777344 z m 1,1.78125 15.724609,9.609375 h -15.724609 z m 1,1.8203125 v 6.7890625 h 0.5 10.6875 z m 1,1.7773435 6.611328,4.011719 h -6.611328 z m -1.9902344,8.011719 c 0.023361,0.547908 0.091918,1.009696 0.2402344,1.410156 0.191442,0.516894 0.552963,0.926872 1.0273438,1.164063 0.9487607,0.47438 2.2226582,0.427734 4.2226562,0.427734 h 7 c 1.499998,0 2.55605,0.05074 3.382812,-0.445312 0.413382,-0.248029 0.719938,-0.655908 0.888672,-1.16211 0.130726,-0.392177 0.195952,-0.848378 0.21875,-1.394531 h -1.001953 c -0.02344,0.468423 -0.0813,0.823984 -0.166015,1.078125 -0.112516,0.337548 -0.24346,0.492171 -0.455078,0.619141 -0.423236,0.253941 -1.367189,0.304687 -2.867188,0.304687 h -7 c -1.999998,0 -3.2261058,-0.04665 -3.7773438,-0.322265 -0.2756188,-0.13781 -0.4140986,-0.290332 -0.5351562,-0.617188 -0.091029,-0.245777 -0.1515423,-0.596841 -0.1757812,-1.0625 z" />
</svg>

<svg height="24" width="24" xmlns="http://www.w3.org/2000/svg"><path style="color:#000;fill:gray;fill-opacity:1;-inkscape-stroke:none" d="M7.455 2.002c-.969.009-1.718.073-2.338.445-.413.248-.72.656-.888 1.162-.135.404-.198.878-.22 1.446L5 5.66v-.158c0-.722.065-1.239.178-1.576.112-.338.243-.492.455-.62C6.056 3.054 7 3.003 8.5 3.003H15v5h5v6.824l1 .61V7.295l-5.293-5.293H8.5c-.375 0-.722-.003-1.045 0zM3 5.609V18h20.277zm1 1.782L19.725 17H4zm1 1.82V16h11.188zm1 1.777L12.611 15H6zM4.01 19c.023.548.092 1.01.24 1.41.191.517.553.927 1.027 1.164.95.475 2.223.428 4.223.428h7c1.5 0 2.556.05 3.383-.445.413-.248.72-.656.888-1.162.131-.393.196-.849.22-1.395h-1.003c-.023.468-.081.824-.166 1.078-.112.338-.243.492-.455.62-.423.253-1.367.304-2.867.304h-7c-2 0-3.226-.047-3.777-.322-.276-.138-.414-.29-.536-.618-.09-.245-.151-.596-.175-1.062z"/></svg>
